X:1
T:Hendon, 77.77
T:Hendon, 77.77
T:Henri Abraham César Malan, 1827
T:Public Domain Courtesy of the Cyber Hymnal™
C:Henri Abraham César Malan, 1827
Z:Public Domain
Z:Courtesy of the Cyber Hymnal™
%%score ( 1 2 ) ( 3 4 )
L:1/8
Q:1/4=110
M:4/4
K:F
V:1 treble 
V:2 treble 
V:3 bass 
V:4 bass 
V:1
 [CF]2 [CF]2 (FC) (FA) | [Fc]2 [EB]2 [CA]4 | [CA]2 [DA]2 (AG) (BG) | [CF]2 (EG) [CF]4 | %4
 [FA]2 [FA]2 [EG]2 ([EG][FA]) | [GB]2 [Ac]2 ([GB]2 [FA]2) | [Fc]2 [Fc]2 [Fd]2 [Fc]2 | %7
 (cB) (BA) ([FA]2 [EG]2) | F2 [EG]2 [FA]2 (BG) | [CF]2 [CE]2 [CF]4 |] %10
V:2
 x4 C2 C2 | x8 | x4 D2 D2 | x2 C2 x4 | x8 | x8 | x8 | G2 F2 x4 | F2 x2 D2 x2 | x8 |] %10
V:3
 [F,A,]2 [F,A,]2 [F,A,]2 [F,A,]2 | [C,A,]2 (G,C) [F,C]4 | F,2 [D,F,]2 [B,,B,]2 [G,,B,]2 | %3
 [C,A,]2 (G,B,) [F,,A,]4 | [F,C]2 [F,C]2 [C,C]2 [C,C]2 | [E,C]2 [C,C]2 [F,C]4 | %6
 [F,A,]2 [F,A,]2 [B,,B,]2 [F,A,]2 | [E,C]2 [F,C]2 [C,C]4 | [D,A,]2 [C,C]2 [F,C]2 (DB,) | %9
 [C,A,]2 [C,G,]2 [F,,A,]4 |] %10
V:4
 x8 | x2 C,2 x4 | F,2 x6 | x2 C,2 x4 | x8 | x8 | x8 | x8 | x6 B,,2 | x8 |] %10

